X:1
T:Title
%%score { ( 1 3 ) | ( 2 4 ) }
L:1/8
M:4/4
K:Eb
V:1 treble nm="Grand Piano"
V:3 treble 
V:2 bass 
V:4 bass 
V:1
 z4 z2[Q:1/4=106] B,2 | E3 E [DF]2 [DF]2 | [EG]2 [GB]4 [Ac]2 | [GB]3 G F2 E2 |[M:3/4] B6 | %5
[M:1/4] [DB]2 |[M:4/4] E3 E [DF]2 [DF]2 | [EG]2 [GB]2 [GB]>[_G=A] [=GB]>[_Gc] | d2 F2 c2 F2 | %9
[M:2/4] [DB]4 | [DB]4 |[M:4/4] E2 [Ge]2 (3[Ac][GB]G F>E | G6 z2 | E2 [Ge]2 (3[Ac][GB]G F>E | %14
[M:3/4] B6 |[M:1/4] [DB]2 |[M:4/4] E>D E>F G2 E2 |[M:9/8] [EA]>[EG][EA]- [EA]/[EB]/ [Ec]2 [C_Ge]3 | %18
[M:4/4] [EGB]2 [EAc]2 (3[EG][DEB][CEA] [B,EG]>[A,DF] |[M:3/4] [G,E]6 |] %20
V:2
 z4 z2 [E,G,]2 | [E,G,B,]3 [E,G,B,] [B,,B,]2 [B,,B,]2 | [E,B,]2 [E,E]4 [E,E]2 | %3
 [E,E]3 [E,B,E] [E,A,B,]2 [E,G,B,]2 |[M:3/4] F,2 G,2 A,2 |[M:1/4] [B,,F,]2 | %6
[M:4/4] [E,G,]3 [E,G,] [B,,B,]2 [B,,B,]2 | [E,B,]2 [E,E]2 [E,E]>[E,E] [E,B,]>[E,B,] | %8
 [F,B,F]2 [F,B,D]2 [F,=A,E]2 [F,A,E]2 |[M:2/4] [B,,B,]4 | [B,,A,]4 | %11
[M:4/4] [E,G,]2 [E,B,]2 (3[E,E][E,E][E,B,E] [E,A,B,]>[E,G,B,] | [E,B,E]2 [B,,B,]2 [E,B,]2 z2 | %13
 [E,G,]2 [E,B,]2 (3[E,E][E,E][E,B,E] [E,A,B,]>[E,G,] |[M:3/4] F,2 G,2 A,2 |[M:1/4] [B,,F,]2 | %16
[M:4/4] [E,G,B,]>[E,F,B,] [E,G,B,]>[E,A,B,] [E,B,E]2 [_D,G,]2 | %17
[M:9/8] [C,A,]>[_D,B,][C,A,]- [C,A,]/[B,,G,]/ [A,,A,]2 =A,,3 | %18
[M:4/4] B,,2 B,,2 (3B,,B,,B,, B,,>B,, |[M:3/4] E,6 |] %20
V:3
 x8 | x8 | x8 | x8 |[M:3/4] D2 E2 F2 |[M:1/4] x2 |[M:4/4] x8 | x8 | x8 |[M:2/4] x4 | x4 | %11
[M:4/4] x8 | z2 E2 E2 z2 | x8 |[M:3/4] D2 E2 F2 |[M:1/4] x2 |[M:4/4] x8 |[M:9/8] x9 |[M:4/4] x8 | %19
[M:3/4] x6 |] %20
V:4
 x8 | x8 | x8 | x8 |[M:3/4] B,,6 |[M:1/4] x2 |[M:4/4] x8 | x8 | x8 |[M:2/4] x4 | x4 |[M:4/4] x8 | %12
 x8 | x8 |[M:3/4] B,,6 |[M:1/4] x2 |[M:4/4] x8 |[M:9/8] x9 |[M:4/4] x8 |[M:3/4] x6 |] %20

